X: 549
T: Derdimi Ummâna Döktüm
C: Şerif İçli
O: Turkey
F: http://compmusic.upf.edu/node/140
N: hicaz--sarki--agiraksak--derdimi_ummana--serif_icli
N: makam= hicaz
N: form= sarki
N: usul= agiraksak = 9/4
M: 9/4
L: 1/16
K: C _7/8B ^f ^c 
Q: 1/4=72
%%MIDI tuningsystem comma53
ABAG ^3/4F2G2 A2B2 A2d2 dc2B cBBA A4 GABc A4  | 
w:  ARANAĞME  | 
d4 d3/2c/=B2 c2d2 e2=f2 efed cdec d2=cB AG^3/4FE D4  | 
w:   | 
d3e ^3/4f2g2 e3f g2a2 g2=f2 e2d2 cdef edcB A2G2  | 
w:   | 
A2B4A2 e2de =f2ed c3d cBBA A4 GABc A4  | 
w:   | 
ABAG ^3/4F2G2 A2B2 A2d2 dc2B cBBA A4 GABc A4  | 
w:  ARANAĞME  | 
d4 d3/2c/=B2 c2d2 e2=f2 efed cdec d2=cB AG^3/4FE D4  | 
w:   | 
d3e ^3/4f2g2 e3f g2a2 g2=f2 e2d2 cdef edcB A2G2  | 
w:   | 
A2B4A2 e2de =f2ed c3d cBBA A3f edcB A4  | 
w:   | 
z8-z2g=f e2d2 c2dc B{c}BBA A8 B2c2  | \
w:  Der *  *  di mi  *  *  *  *  *  *  *  um  | 
d/c/d/e/dc BAG^3/4F G2A2 d2d2 c2d2 e3/2=f/ed d6c2 d2ed  | 
w:  *  *  *  *  *  *  *  *  *  *  *  mâ *  na  dök *  *  *  *  *  tüm   | 
d4 GABc d2c4d2 dedc d4 c2dc BABd c2BA  | 
w:  *  SAZ *  *  *  *  â su mâ *  *  *  *  na   | 
cde=f edcB A2e2 ^3/4f2g2 g=ffe eddc d6ef eddc  | 
w:  *  *  *  *  *  *  *  *  *  in *  *  *  *  *  *  *  *  le *  dim   SAZ  | 
d3A Bcd2 z2d4d2 dedc d4 g=fed c3d dc(3BAB  | 
w:  *  *  *  *  *  Yâ re  de  *  *  *  *  ağ  | 
cde=f edcB A2A2 Bcd2 c2dc B2A2 cBBA B2cd e2dc  | 
w:  *  *  *  *  *  *  *  *  *  yâ *  *  re  de  *  *  *  *  hâl_  | 
d3/2c/BA BAG^3/4F G2GA G2A2 A8 dcBA (3G=FG(3AGA (3BAB(3cBc  | 
w:  *  *  *  *  *  *  *  *  *  i  *  *  de rû num  | 
d2e2 c2BA A2AB A2d2 dccB cBBA A6e=f eddc  | 
w:  *  *  *  *  *  *  söy *  *  *  *  *  *  *  *  *  le *  dim   SAZ  | 
d3A Bcd2 z2d4d2 dedc d4 g=fed c3d dc(3BAB  | 
w:  *  *  *  *  *  Yâ re  de  *  *  *  *  ağ  | 
cde=f edcB A2A2 Bcd2 c2dc B2A2 cBBA B2cd e2dc  | 
w:  *  *  *  *  *  *  *  *  *  yâ *  *  re  de  *  *  *  *  hâl_  | 
d3/2c/BA BAG^3/4F G2GA G2A2 A8 dcBA (3G=FG(3AGA (3BAB(3cBc  | 
w:  *  *  *  *  *  *  *  *  *  i  *  *  de rû num  | 
d2e2 c2BA A2AB A2d2 dccB cBBA A6e=f edcd  | 
w:  *  *  *  *  *  *  söy *  *  *  *  *  *  *  *  *  le *  dim   SAZ  | 
e2^3/4f2 (3gfg(3agf e2d4e2 e8 e3/2g/fe d4 c4  | \
w:  *  *  *  *  *  *  *  *  *  Â şi na  yok   | 
(3dcd(3ede (3^3/4fef(3gfe e2e4=f2 e2d2 c2=B2 c2d2 e2^3/4f2 g2fe  | 
w:  *  *  *  *  *  *  *  *  *  *  *  *  *  der di me  *  *  *  ben   | 
e4 g3/2=f/eg f2f4f2 fgfe f4 g2fe d4 c4  | \
w:  *  SAZ *  *  *  *  söy le dim  *  *  *  *  ben   | 
d2e=f edcB A2e2 ^3/4f2g2 g=ffe eddc d6ef eddc  | 
w:  *  *  *  *  *  *  *  *  din *  *  *  *  *  *  *  *  le *  dim   SAZ  | 
d3A Bcd2 z2d4d2 dedc d4 g=fed c3d dc(3BAB  | 
w:  *  *  *  *  *  Yâ re  de  *  *  *  *  ağ  | 
cde=f edcB A2A2 Bcd2 c2dc B2A2 cBBA B2cd e2dc  | 
w:  *  *  *  *  *  *  *  *  *  yâ *  *  re  de  *  *  *  *  hâl_  | 
d3/2c/BA BAG^3/4F G2GA G2A2 A8 dcBA (3G=FG(3AGA (3BAB(3cBc  | 
w:  *  *  *  *  *  *  *  *  *  i  *  *  de rû num  | 
d2e2 c2BA A2AB A2d2 dccB cBBA A6e=f eddc  | 
w:  *  *  *  *  *  *  söy *  *  *  *  *  *  *  *  *  le *  dim   SAZ  | 
d3A Bcd2 z2d4d2 dedc d4 g=fed c3d dc(3BAB  | 
w:  *  *  *  *  *  Yâ re  de  *  *  *  *  ağ  | 
cde=f edcB A2A2 Bcd2 c2dc B2A2 cBBA B2cd e2dc  | 
w:  *  *  *  *  *  *  *  *  *  yâ *  *  re  de  *  *  *  *  hâl_  | 
d3/2c/BA BAG^3/4F G2GA G2A2 A8 dcBA (3G=FG(3AGA (3BAB(3cBc  | 
w:  *  *  *  *  *  *  *  *  *  i  *  *  de rû num  | 
d2e2 c2BA A2AB A2d2 dccB cBBA A6|
w:  *  *  *  *  *  *  söy *  *  *  *  *  *  *  *  *  le *  dim    | 


